devices/24/drive-harddisk-root.svg

<svg xmlns="http://www.w3.org/2000/svg" viewBox="0 0 24 24" width="24" height="24">
  <defs id="defs3051">
    <style type="text/css" id="current-color-scheme">.ColorScheme-Text {color:#eff0f1;}</style>
  </defs>
  <g transform="translate(1,1)">
    <path style="fill:currentColor;fill-opacity:1" d="M 8.5566406,3 C 6.5863838,3 5,4.5863838 5,6.5566406 V 12 15.443359 17 c 0,0 0,2 2,2 2,0 6,0 8,0 2,0 2,-2 2,-2 V 15.443359 12 6.5566406 C 17,4.5863838 15.413616,3 13.443359,3 Z M 9,4 h 4 c 1.656854,0 3,1.3431458 3,3 V 9.0878906 C 15.401408,9.2995242 15.000891,9.8650979 15,10.5 c 8.91e-4,0.634902 0.401408,1.200475 1,1.412109 V 14 l -2,2 H 8 L 6,14 V 11.912109 C 6.5985921,11.700475 6.999109,11.134902 7,10.5 6.9991092,9.8650979 6.5985922,9.2995242 6,9.0878906 V 7 C 6,5.3431458 7.3431458,4 9,4 Z m 2,2 -4,8 h 2 l 4,-8 z m 0,7 v 1 h 4 v -1 z m -4,4 h 4 v 1 H 7 Z m 6,0 h 2 v 1 h -2 z" class="ColorScheme-Text"/>
  </g>
</svg>

<svg xmlns="http://www.w3.org/2000/svg" viewBox="0 0 22 22">
  <defs
     id="defs3051">
    <style
       type="text/css"
       id="current-color-scheme">
      .ColorScheme-Text {
        color:#eff0f1;
      }
      </style>
  </defs>
  <path
     style="fill:currentColor;fill-opacity:1"
     d="M 8.5566406 3 C 6.5863838 3 5 4.5863838 5 6.5566406 L 5 12 L 5 15.443359 L 5 19 L 8.5566406 19 L 13.443359 19 L 17 19 L 17 15.443359 L 17 12 L 17 6.5566406 C 17 4.5863838 15.413616 3 13.443359 3 L 8.5566406 3 z M 9 4 L 13 4 A 3 3 0 0 1 16 7 L 16 9.0878906 A 1.5 1.5 0 0 0 15 10.5 A 1.5 1.5 0 0 0 16 11.912109 L 16 14 L 14 16 L 8 16 L 6 14 L 6 11.912109 A 1.5 1.5 0 0 0 7 10.5 A 1.5 1.5 0 0 0 6 9.0878906 L 6 7 A 3 3 0 0 1 9 4 z M 11 6 L 7 14 L 9 14 L 13 6 L 11 6 z M 11 13 L 11 14 L 15 14 L 15 13 L 11 13 z M 7 17 L 11 17 L 11 18 L 7 18 L 7 17 z M 13 17 L 15 17 L 15 18 L 13 18 L 13 17 z "
     class="ColorScheme-Text"/>
</svg>
